X:232
T: AUF TAPFERE BRUEDER
N: F0401
O: Europa, Mitteleuropa, Deutschland
R: Vaterlands -, Heimat - Lied, nationalistisch, Krieg
M: 4/4
L: 1/16
K: Eb
B4 | e4e3de4B4 | c4c3Bc4
G4 | A6G2A3FG3E | B12
e4 | d6c2B4=A4 | B4B3=AB4
e4 | d6c2B4=A4 | B4B3=AB4
G4 | A8F8 | B6A2G4
B4 | e4A3BB4B4 | E8z4

@@@ Tune index: 5663
